src/assets/icons/socket-codebox.svg

<?xml version="1.0" encoding="utf-8"?>
<!-- Generator: Adobe Illustrator 16.0.0, SVG Export Plug-In . SVG Version: 6.00 Build 0)  -->
<!DOCTYPE svg PUBLIC "-//W3C//DTD SVG 1.1//EN" "http://www.w3.org/Graphics/SVG/1.1/DTD/svg11.dtd">
<svg version="1.1" id="Layer_1" xmlns="http://www.w3.org/2000/svg" xmlns:xlink="http://www.w3.org/1999/xlink" x="0px" y="0px"
	 width="178px" height="178px" viewBox="0 -9 178 178" enable-background="new 0 -9 178 178" xml:space="preserve">
<path fill="#010101" d="M176.398,74.934L136.883,4.711C135.368,1.867,132.434,0,129.05,0H48.949c-3.381,0-6.318,1.867-7.832,4.711
	L1.602,74.934C0.533,76.355,0,78.134,0,80s0.533,3.646,1.602,5.066l39.516,70.223c1.514,2.845,4.451,4.711,7.832,4.711h80.101
	c3.383,0,6.318-1.866,7.833-4.711L176.4,85.066c1.066-1.42,1.6-3.2,1.6-5.066S177.467,76.355,176.398,74.934z M75.891,102.023
	l-7.103,6.684l-30.441-28.64l30.441-28.639l7.103,6.682L52.553,80.067L75.891,102.023z M108.98,108.707l-7.104-6.684l23.338-21.957
	L101.877,58.11l7.104-6.682l30.44,28.639L108.98,108.707z"/>
</svg>

<?xml version="1.0" encoding="UTF-8" standalone="no"?>
<svg width="178px" height="160px" viewBox="0 0 178 160" version="1.1" xmlns="http://www.w3.org/2000/svg" xmlns:xlink="http://www.w3.org/1999/xlink">
    <!-- Generator: Sketch 3.6.1 (26313) - http://www.bohemiancoding.com/sketch -->
    <title>socket-codebox</title>
    <desc>Created with Sketch.</desc>
    <defs></defs>
    <g id="Page-1" stroke="none" stroke-width="1" fill="none" fill-rule="evenodd">
        <g id="socket-codebox" fill="#010101">
            <g id="Layer_1">
                <path d="M176.398,74.934 L136.883,4.711 C135.368,1.867 132.434,0 129.05,0 L48.949,0 C45.568,0 42.631,1.867 41.117,4.711 L1.602,74.934 C0.533,76.355 0,78.134 0,80 C0,81.866 0.533,83.646 1.602,85.066 L41.118,155.289 C42.632,158.134 45.569,160 48.95,160 L129.051,160 C132.434,160 135.369,158.134 136.884,155.289 L176.4,85.066 C177.466,83.646 178,81.866 178,80 C178,78.134 177.467,76.355 176.398,74.934 L176.398,74.934 Z M75.891,102.023 L68.788,108.707 L38.347,80.067 L68.788,51.428 L75.891,58.11 L52.553,80.067 L75.891,102.023 L75.891,102.023 Z M108.98,108.707 L101.876,102.023 L125.214,80.066 L101.877,58.11 L108.981,51.428 L139.421,80.067 L108.98,108.707 L108.98,108.707 Z" id="Shape"></path>
            </g>
        </g>
    </g>
</svg>
